X:441
T:Polska efter Carl Johan Nilsson
T:(SvL Östergötland 441)
O:Kisa, Östergötland
R:Polska
S:Carl Johan Nilsson
B:Svenska Låtar Östergötland
M:3/4
L:1/8
K:C
e>f g2 c'2|c'e' g>a fg|cd ec g(e{fe})|d/e/d c4:|
|:B>c de fe|c>c ec/e/ g2|B>c de fe|c>c ec/e/ g2|
ff ef g(e{fe})|d/e/d c4:|

